X:2089
T:Daunse ny ferishyn 
C:Wesley Cleator, Castletown
S:Traditional, N.Gow?
Z:Clague collection
B:Kiaull Vannin #89
N:Fairy Reel, Gow
M:2/4 
L:1/8 
Q:220 
K:G 
B2 BG|B2 BG|cB AG|FG A2|B2 BG|cB AG|FD EF|G2 G2:| 
d2 dB|e2 ed|c2 cA|d3 c |B2 BG|cB AG|FD EF|G2 G2:| 

